X:1
T:The Sixth of November
M:C
L:1/4
C:Liz Reid
S:via Moira Reekie
N:Written for Edinburgh band leader Jack Stalker
Z:Ian Brockbank  scots_music 2008-2-21
K:Dm
A,  | D > D   A > G | A   d   d   c   | A > c   A/G/ E  | D3
d   | d > A   A  =B | c > d   e   d/c/| d > A   A   G   | A3
A   | d > e   d   A | c2      c   A   | G > A   G/F/E/D/| C3
D/E/| F   D   G F/E/| F   A   d   f   | e > d   d   c   | d3
